!!!OTL: 1407. Des Jnvaliden Mahnung.
!!!ODT: 1880
!!!ARE: Europa, Mitteleuropa, Deutschland, Hessen, Hennethal, Homburg
!!!SCT: E1407
!!!TXL: @@DE
!!!YEM: Copyright 1995, estate of Helmut Schaffrath.
**kern	**text
*ICvox	*
*M6/8	*
*k[b-]	*
*F:	*
!LO:TX:a:t=Aus Hennethal im Untertaunus u. Homburg. 1880.	!
{8c	Mit
=1	=1
4a	jam-
8a	-mer-
4g	-vol-
8g	-len
=2	=2
(4f	Blik-
8a)	.
4c}	-ken
{8c	und
=3	=3
4cc	tauſend
8cc	.
4dd	Sorgen
8b-	.
=4	=4
4.g	ſchwer
4r}	.
{8g	ſchleich
=5	=5
8aL	ich
8gJ	.
8a	an
8b-L	mei-
8aJ	.
8b-/	-ner
=6	=6
(4cc	Krük-
8ff)	.
4dd}	-ken
{8b-	die
=7	=7
8ccL	wei-
8aJ	.
8f	-te
4g	Welt
16gL	um-
16aJ	.
=8	=8
4.f	-her.
4r}	.
{8f	War
=9	=9
4f	einſt
8f	ein
4dd	bra-
8cc	-ver
=10	=10
8ccL	Krie-
8b-J	.
8b-	-ger,
4r}	.
{8b-	ſang
=11	=11
4a	manch
8g	Sol-
4cc	-da-
8b-	-ten-
=12	=12
4.a	-lied,
4r}	.
{8cc	war
=13	=13
4cc	einſt
8g	ein
8gL	fro-
8aJ	.
8bn	-her
=14	=14
(4cc	Sie-
8dd)	.
4cc}	-ger,
{8b-X/	nun
=15	=15
8a/L	bin
8ccJ	.
8ff	ich
8ffL	Jn-
8ccJ	.
8a	-va-
=16	=16
4.g	-lid,
4r}	.
{8f	war
=17	=17
8aL	einſt
8gJ	.
8a	ein
8b-L	fro-
8aJ	.
8b-/	-her
=18	=18
(4cc	Sie-
8ff)	.
4dd}	-ger,
{8b-	nun
=19	=19
8cc/L	bin
8aJ	.
8f	ich
4g	Jn-
16gL	-va-
16aJ	.
=20	=20
4.f	-lid.
4r}	.
==	==
!!!AGN: Staende -, Soldaten - Lied, Invaliden
!!!ONB: ESAC (Essen Associative Code) Database: ERK3
!!!AMT: compound duple
!!!AIN: vox
!!!EED: Helmut Schaffrath
!!!EEV: 1.0
!!!GTL: Staendelieder (Berufslieder). 1. Soldaten- und Kriegslieder. Soldatenlieder seit dem 30jaehr. Kriege.
!!!URL-scan: https://rosdok.uni-rostock.de/mcrviewer/recordIdentifier/rosdok_ppn745177999/iview2/phys_0276.iview2?x=-128.77276441889308&y=196.09502712870017&scale=0.5870222003877485&rotation=0&layout=singlePageLayout
!!!ENC: Anna Maria Matuszewska
!!!EEV: 2024/12/31
*-	*-
